X:1
T:Title
%%score { ( 1 2 ) | ( 3 4 ) }
L:1/8
Q:1/4=100
M:4/4
K:Bb
V:1 treble nm="Grand Piano"
V:2 treble 
V:3 bass 
V:4 bass 
V:1
 [DF]2 [DB]2 ABcB | [DA]2 [DB]2 [DG]2 F2 | _A2 G2 F2 DF | E2 [=B,D]2 C4 | [EG]2 [Ec]2 =Bcdc | %5
w: S.~L.~Krebs * * * * *|||||
 [E=B]2 [Ec]2 [E_A]2 [EG]2 | FG[CEA][FB] [EAc][_A=B] .[E=Ac]2 | [EAc]2 [_Ad]2 [=Ae]4 | %8
w: |||
 [DF]2 [DB]2 ABcB | [DA]2 [DB]2 [DG]2 F2 | _A2 G2 F2 DF | E2 [=B,D]2 C4 | [Ge]3 [Ge] [^Fd]3 [DFA] | %13
w: |||||
 [DAc]2 [DGB]2 [DGB]2 [EAc]2 | [FBd][=EB_d][FB=d][GBe] [FAd]2 [_EAc]2 | [B,DFB]4[K:bass] z4 | %16
w: |||
 BBBB F2 A2 | [DB]8 |] %18
w: ||
V:2
 z4 D2 D2 | x8 | x8 | x8 | z4 E2 E2 | x8 | x8 | x8 | z4 D2 D2 | x8 | x8 | x8 | x8 | x8 | x8 | %15
 z[K:bass] F,=E,F, D,2 _E,2 | x8 | x8 |] %18
V:3
 [B,,F,]2 [B,,F,]2 [B,,F,]2 [B,,F,]2 | [B,,F,]2 [B,,F,]2 [B,,B,]2 [B,D]2 | %2
 [G,=B,D]2 [G,B,D]2 [G,B,D]2 [G,B,]2 | [C,G,C]2 [G,,F,]2 [C,E,]4 | %4
 [C,G,]2 [C,G,]2 [C,G,]2 [C,G,]2 | [C,G,]2 [C,G,]2 [C,C]2 [C,C]2 | [F,E]-[F,B,E] z D z D z F | %7
 F,2 [F,=B,]2 [F,C]4 | [B,,B,]2 [B,,F,]2 [B,,F,]2 [B,,F,]2 | [B,,F,]2 [B,,F,]2 [B,,B,]2 [B,D]2 | %10
 [G,=B,D]2 [G,B,D]2 [G,B,D]2 [G,B,]2 | [C,G,C]2 [G,,F,]2 [C,E,]4 | [C,C]3 [C,C] [D,A,]3 D, | %13
 ^F,2 G,2 G,2 F,2 | F,F,F,F, F,2 F,2 | B,,F,,=E,,F,, D,,2 _E,,2 | %16
 [F,DF][F,_D=E][F,=DF][F,_EG] [F,D]2 [F,CE]2 | [B,,B,]8 |] %18
V:4
 x8 | x8 | x8 | x8 | x8 | x8 | .A,2 F,2 F,2 F,2 | x8 | x8 | x8 | x8 | x8 | x8 | x8 | x8 | x8 | x8 | %17
 x8 |] %18

